T:Supercalifragilisticoespialidoso
M:2/4
L:1/8
R:ost
K:G
Q:1/4=109
EGGG | AGGE | GGAG | 2G 2D |
DGGG | AGGD | GGAG | 2G 2E | GGGG |
AGGG | ccdc | 2c 2A | AcBA |
cGGG | AGAB | 2c 2c |]